X:205
T: FRIEDE SEI UM DIESEN GRABSTEIN HER
N: F0352
O: Europa, Mitteleuropa, Deutschland
R: Jugend - Lied, Toten - Klage, Trauer
M: 4/4
L: 1/8
K: Eb
E2F2 | G3GA3F | E2D2C2z2
c3cBeGB | A4G2z2
F3eedcB | B=AGFB2c2
d2ecB2c2 | B2z4
B=B | c4zAFB | G2z2
E2F2 | G3GA3F | E2D2C2
Cc | c3cBeGB | B3AG2G2
F3eedcB | B=AGFB2c2
d2ecB2c2 | B2z2
E2F2 | G3GA3F | E2D2C2z2 | z4
G2G2 | G2F2E2D2 | G2F2E2D2
G3ccAA2 | GGGGcAA2
G3cc3^F | G2z2
E2F2 | G3GA3F | E2D2C2z2
c3cBeGB | A4G2z2
F3eedcB | B=AGFB2c2
d2ecB2c2 | B2z4
B=B | c4zAFB | G2z2

